assets/icons/24px/stroke/folder-alert-24px.svg

<svg width="24" height="24" viewBox="0 0 24 24" fill="none" xmlns="http://www.w3.org/2000/svg">
<path fill-rule="evenodd" clip-rule="evenodd" d="M11.4472 4.10554C11.2857 4.02477 11.0818 3.99997 10 3.99997H7C6.02893 3.99997 5.40122 4.0021 4.93871 4.06428C4.50497 4.12259 4.36902 4.21674 4.2929 4.29286C4.21677 4.36899 4.12263 4.50494 4.06431 4.93868C4.00213 5.40118 4 6.02889 4 6.99997V17C4 17.9711 4.00213 18.5988 4.06431 19.0613C4.12263 19.495 4.21677 19.631 4.2929 19.7071C4.36902 19.7832 4.50497 19.8773 4.93871 19.9357C5.40121 19.9978 6.02893 20 7 20H12C12.5523 20 13 20.4477 13 21C13 21.5523 12.5523 22 12 22L6.9342 22C6.0477 22 5.28388 22.0001 4.67221 21.9178C4.0167 21.8297 3.38835 21.631 2.87868 21.1213C2.36902 20.6116 2.17028 19.9833 2.08215 19.3278C1.99991 18.7161 1.99995 17.9523 2 17.0658L2 6.99997C2 6.97795 2 6.95601 2 6.93414C1.99995 6.04765 1.99991 5.28384 2.08215 4.67218C2.17028 4.01666 2.36902 3.38831 2.87868 2.87865C3.38835 2.36899 4.0167 2.17024 4.67221 2.08211C5.28387 1.99988 6.04769 1.99992 6.93417 1.99997C6.95604 1.99997 6.97799 1.99997 7 1.99997H10C10.0563 1.99997 10.1122 1.99987 10.1676 1.99977C10.98 1.9983 11.7022 1.99699 12.3416 2.31669C12.981 2.63639 13.4133 3.21496 13.8996 3.86576C13.9328 3.91018 13.9662 3.95494 14 3.99997L14.6 4.79997C15.2491 5.66542 15.3913 5.81363 15.5528 5.8944C15.7143 5.97517 15.9182 5.99997 17 5.99997L17.0658 5.99997C17.9523 5.99992 18.7161 5.99988 19.3278 6.08211C19.9833 6.17024 20.6117 6.36899 21.1213 6.87865C21.631 7.38831 21.8297 8.01666 21.9179 8.67218C22.0001 9.28385 22.0001 10.0477 22 10.9342L22 12C22 12.5523 21.5523 13 21 13C20.4477 13 20 12.5523 20 12V11C20 10.0289 19.9979 9.40118 19.9357 8.93868C19.8774 8.50494 19.7832 8.36899 19.7071 8.29287C19.631 8.21674 19.495 8.12259 19.0613 8.06428C18.5988 8.0021 17.9711 7.99997 17 7.99997C16.9437 7.99997 16.8878 8.00007 16.8324 8.00017C16.02 8.00165 15.2978 8.00295 14.6584 7.68325C14.019 7.36355 13.5867 6.78499 13.1004 6.13418C13.0672 6.08976 13.0338 6.045 13 5.99997L12.4 5.19997C11.7509 4.33452 11.6088 4.18631 11.4472 4.10554Z" fill="white"/>
<path d="M18.5 21C18.5 21.5523 18.0523 22 17.5 22C16.9477 22 16.5 21.5523 16.5 21C16.5 20.4477 16.9477 20 17.5 20C18.0523 20 18.5 20.4477 18.5 21Z" fill="white"/>
<path fill-rule="evenodd" clip-rule="evenodd" d="M17.5 12C18.0523 12 18.5 12.4477 18.5 13V17.5C18.5 18.0523 18.0523 18.5 17.5 18.5C16.9477 18.5 16.5 18.0523 16.5 17.5V13C16.5 12.4477 16.9477 12 17.5 12Z" fill="white"/>
<path fill-rule="evenodd" clip-rule="evenodd" d="M2 6H18V8H2V6Z" fill="white"/>
</svg>

<svg width="24" height="24" fill="none" xmlns="http://www.w3.org/2000/svg"><path fill-rule="evenodd" clip-rule="evenodd" d="M11.447 4.106C11.286 4.025 11.082 4 10 4H7c-.971 0-1.599.002-2.061.064-.434.059-.57.153-.646.229-.076.076-.17.212-.229.646C4.002 5.4 4 6.029 4 7v10c0 .971.002 1.599.064 2.061.059.434.153.57.229.646.076.076.212.17.646.229C5.4 19.998 6.029 20 7 20h5a1 1 0 1 1 0 2H6.934c-.886 0-1.65 0-2.262-.082-.655-.088-1.284-.287-1.793-.797-.51-.51-.709-1.138-.797-1.793C2 18.716 2 17.952 2 17.066V7v-.066c0-.886 0-1.65.082-2.262.088-.655.287-1.284.797-1.793.51-.51 1.138-.709 1.793-.797C5.284 2 6.048 2 6.934 2h3.234c.812-.002 1.534-.003 2.174.317.639.32 1.071.898 1.558 1.549L14 4l.6.8c.65.865.791 1.014.953 1.094.161.081.365.106 1.447.106h.066c.886 0 1.65 0 2.262.082.655.088 1.284.287 1.793.797.51.51.709 1.138.797 1.793.082.612.082 1.376.082 2.262V12a1 1 0 1 1-2 0v-1c0-.971-.002-1.599-.064-2.061-.059-.434-.153-.57-.229-.646-.076-.076-.212-.17-.646-.229C18.6 8.002 17.971 8 17 8h-.168c-.812.002-1.534.003-2.174-.317-.639-.32-1.071-.898-1.558-1.549L13 6l-.6-.8c-.65-.865-.791-1.014-.953-1.094z" fill="#fff"/><path d="M18.5 21a1 1 0 1 1-2 0 1 1 0 0 1 2 0z" fill="#fff"/><path fill-rule="evenodd" clip-rule="evenodd" d="M17.5 12a1 1 0 0 1 1 1v4.5a1 1 0 1 1-2 0V13a1 1 0 0 1 1-1zM2 6h16v2H2V6z" fill="#fff"/></svg>
